X:1
T:He Keepeth His Promise
T:He Keepeth His Promise
T:Herbert J. Lacey
T:Salathial Cleaver Kirk, 1904
T:Public Domain Courtesy of the Cyber Hymnal™
T:Public Domain Courtesy of the Cyber Hymnal™
C:Herbert J. Lacey
Z:Public Domain
Z:Courtesy of the Cyber Hymnal™
%%score ( 1 2 ) ( 3 4 )
L:1/8
Q:1/4=90
M:6/8
K:Bb
V:1 treble 
V:2 treble 
V:3 bass 
V:4 bass 
V:1
 F | [DB][DA][DG] [DF]DE | FGA B2 [DB] | [Fd][Ec][DB] [FB][FA][FB] | [Fd]3 [Fc]2 F | %5
w: 1.~The|Lord hath de- clared, and the|Lord will per- form: “Be-|hold! I am near to de-|liv- er, A|
w: 2.~Who|seek Him shall find Him, shall|find Him to- day, The|word is to all, “Who- so-|ev- er!” No|
w: 3.~Tho’|oft- en my toil seems but|la- bor in vain, I|leave with the Lord my en-|dea- vor; I|
w: 4.~My|heart may sink low in the|depths of its woe, But|ne- ver, He tells me, O|ne- ver! The|
w: 5.~The|bonds that u- nite us in|earth’s dear- est ties, The|rude hand of Time will dis-|cov- er; But|
 [DB][DB][DB] [^FA][FA][FA] | [EG][EG][EG] [DF]2 [^G,D] | [A,C][CF][FA] [Fc][FA]F | G3 F2 || %9
w: ref- uge and fort- ress, a|cov- ert in storm”; He|keep- eth His prom- ise for-|ev- er.|
w: soul that en- treat- eth, He|turn- eth a- way; He|keep- eth His prom- ise for-|ev- er.|
w: pa- tient- ly wait for the|sun- shine and rain— He|keep- eth His prom- ise for-|ev- er.|
w: frail bruis- èd reed will He|break, and I know He|keep- eth His prom- ise for-|ev- er.|
w: we shall re- new them a-|gain in the skies; He|keep- eth His prom- ise for-|ev- er.|
"^Refrain" [Dd] | [Dd]<[Dd][Dd] [Dd]<[Dd][Dd] | [Dd][DB][^CG] [DF]2 [DB] | %12
w: |||
w: |||
w: For-|ev- er! For- ev- er! O|not for a day! He|
w: |||
w: |||
 [Fd][Ec][DB] [FB][FA][FB] | [Fd]3 [Fc]2 [EF] | [DB][Dd][DB] [EG]2 [FG] | [Ec][Ge][Gc] [FA]2 F | %16
w: ||||
w: ||||
w: keep- eth His prom- ise for-|ev- er! To|all who be- lieve, to|all who o- bey, He|
w: ||||
w: ||||
 [FB][Fc][Fd] [Ge]G[Gd] | [Ec]3 [DB]6 |] %18
w: ||
w: ||
w: keep- eth His prom- ise for-|ev- er!|
w: ||
w: ||
V:2
 F | x4 DE | FGA B2 x | x6 | x5 F | x6 | x6 | x5 F | (F2 =E) F2 || x | x6 | x6 | x6 | x6 | x6 | %15
 x5 F | x4 G x | x9 |] %18
V:3
 F, | [B,,F,][B,,F,][B,,F,] [B,,B,]D,E, | F,G,A, B,2 [B,,B,] | %3
 [B,,B,][B,,B,][B,,B,] [F,D][F,C][F,D] | [F,B,]3 [F,A,]2 F, | [G,B,][G,B,][G,B,] [D,D][D,D][D,C] | %6
 [E,B,][E,B,][E,B,] [B,,B,]2 [=B,,F,] | [C,F,][C,A,][C,C] [C,A,][C,C][C,A,] | [C,B,]3 [F,A,]2 || %9
 [B,,F,] | [B,,F,]<[B,,F,][B,,^F,] [B,,G,]<[B,,G,][B,,A,] | %11
 [B,,B,][B,,F,][B,,=E,] [B,,F,]2 [B,,B,] | [B,,B,][B,,B,][B,,B,] [F,D][F,C][F,D] | %13
 [F,B,]3 [F,A,]2 [F,A,] | [B,,F,][B,,F,][B,,B,] [E,B,]2 [D,=B,] | [C,C][C,C][E,C] [F,C]2 [E,A,] | %16
 [D,B,][C,A,][B,,B,] [E,B,][E,B,][E,B,] | [F,A,]3 [B,,B,]6 |] %18
V:4
 F, | x4 D,E, | F,G,A, B,2 x | x6 | x5 F, | x6 | x6 | x6 | x5 || x | x6 | x6 | x6 | x6 | x6 | x6 | %16
 x6 | x9 |] %18

